svgs/thin/tty-answer.svg

<svg xmlns="http://www.w3.org/2000/svg" viewBox="0 0 640 512"><!-- Font Awesome Pro 6.0.0-alpha2 by @fontawesome - https://fontawesome.com License - https://fontawesome.com/license (Commercial License) --><path d="M493.094 351.248L384.609 304.748C371.828 299.217 356.813 302.936 348.125 313.717L304.078 367.529C234.828 333.529 178.531 277.246 144.547 208.027L198.375 163.934C209.125 155.152 212.797 140.277 207.359 127.496L160.828 18.932C154.734 5.025 139.656 -2.6 124.969 0.807L24.219 24.057C9.969 27.307 0 39.838 0 54.494C0 306.779 205.234 512 457.484 512C472.156 512 484.688 502.031 487.953 487.779L511.203 386.998C514.578 372.404 507 357.248 493.094 351.248ZM495.609 383.404L472.359 484.186C470.766 491.125 464.641 496 457.484 496C214.047 496 16 297.936 16 54.494C16 47.338 20.859 41.244 27.812 39.619L128.562 16.369C135.766 14.713 143.172 18.494 146.141 25.307L192.656 133.809C195.316 140.051 193.443 147.305 188.25 151.559L124.719 203.559C187.035 337.045 293.375 380.287 308.531 387.342L360.547 323.811C364.766 318.561 372.062 316.748 378.281 319.436L486.766 365.936C493.547 368.873 497.25 376.279 495.609 383.404ZM608 0H320C302.326 0 288 14.326 288 32V224C288 241.672 302.326 256 320 256H608C625.674 256 640 241.672 640 224V32C640 14.326 625.674 0 608 0ZM384 16H456V80H384V16ZM384 96H456V160H384V96ZM368 240H320C311.178 240 304 232.822 304 224V176H368V240ZM368 160H304V96H368V160ZM368 80H304V32C304 23.178 311.178 16 320 16H368V80ZM544 240H384V176H544V240ZM544 160H472V96H544V160ZM544 80H472V16H544V80ZM624 224C624 232.822 616.822 240 608 240H560V176H624V224ZM624 160H560V96H624V160ZM624 80H560V16H608C616.822 16 624 23.178 624 32V80Z"/></svg>

<svg xmlns="http://www.w3.org/2000/svg" viewBox="0 0 640 512"><!--! Font Awesome Pro 6.0.0-alpha3 by @fontawesome - https://fontawesome.com License - https://fontawesome.com/license (Commercial License) --><path d="M493.1 351.2L384.6 304.7c-12.78-5.531-27.8-1.812-36.48 8.969l-44.05 53.81c-69.25-34-125.5-90.28-159.5-159.5l53.83-44.09C209.1 155.2 212.8 140.3 207.4 127.5L160.8 18.93C154.7 5.026 139.7-2.599 124.1 .8073L24.22 24.06C9.969 27.31 0 39.84 0 54.49C0 306.8 205.2 512 457.5 512c14.67 0 27.2-9.967 30.47-24.22l23.25-100.8C514.6 372.4 507 357.2 493.1 351.2zM495.6 383.4l-23.25 100.8C470.8 491.1 464.6 496 457.5 496C214 496 16 297.9 16 54.49c0-7.156 4.859-13.25 11.81-14.88l100.8-23.25c7.203-1.656 14.61 2.125 17.58 8.938l46.52 108.5C195.3 140.1 193.4 147.3 188.3 151.6l-63.53 52c62.32 133.5 168.7 176.7 183.8 183.8l52.02-63.53c4.219-5.25 11.52-7.062 17.73-4.375l108.5 46.5C493.5 368.9 497.3 376.3 495.6 383.4zM608 0h-288C302.3 0 288 14.33 288 32v192c0 17.67 14.33 32 32 32h288c17.67 0 32-14.33 32-32V32C640 14.33 625.7 0 608 0zM384 16h72v64H384V16zM384 96h72v64H384V96zM368 240H320C311.2 240 304 232.8 304 224V176h64V240zM368 160h-64V96h64V160zM368 80h-64V32c0-8.822 7.178-16 16-16h48V80zM544 240h-160v-64h160V240zM544 160h-72V96H544V160zM544 80h-72v-64H544V80zM624 224c0 8.822-7.178 16-16 16h-48v-64h64V224zM624 160h-64V96h64V160zM624 80h-64v-64H608c8.822 0 16 7.178 16 16V80z"/></svg>
